usr/share/icons/biglinux-icons-material/scalable/apps/gnome-builder.svg

<svg xmlns="http://www.w3.org/2000/svg" xml:space="preserve" id="svg26544" width="24" height="24" version="1.1" viewBox="0 0 6.35 6.35"><defs id="defs26548"><radialGradient id="radialGradient868-3" cx="0" cy="0" r="1" fx="0" fy="0" gradientTransform="matrix(0 16.5 -16.5 0 9 .75)" gradientUnits="userSpaceOnUse" spreadMethod="pad"><stop id="stop864-6" offset="0" style="stop-opacity:1;stop-color:#fafafa"/><stop id="stop866-7" offset="1" style="stop-opacity:1;stop-color:silver"/></radialGradient><radialGradient id="radialGradient27965" cx="9" cy="9" r="8.25" fx="9" fy="2.848" gradientTransform="translate(-3.273 -3.273) scale(1.36364)" gradientUnits="userSpaceOnUse" spreadMethod="pad"><stop id="stop27961" offset="0" style="stop-opacity:1;stop-color:#6aa1ff"/><stop id="stop27963" offset="1" style="stop-opacity:1;stop-color:#2879ff"/></radialGradient><radialGradient id="radialGradient27965-2" cx="9" cy="9" r="8.25" fx="9" fy="2.848" gradientTransform="translate(-3.273 -3.273) scale(1.36364)" gradientUnits="userSpaceOnUse" spreadMethod="pad"><stop id="stop27961-6" offset="0" style="stop-opacity:1;stop-color:#6aa1ff"/><stop id="stop27963-6" offset="1" style="stop-opacity:1;stop-color:#2879ff"/></radialGradient><radialGradient id="radialGradient1069" cx="9" cy="9" r="8.25" fx="9" fy="2.848" gradientTransform="translate(-3.273 -3.273) scale(1.36364)" gradientUnits="userSpaceOnUse" spreadMethod="pad"><stop id="stop1065" offset="0" style="stop-opacity:1;stop-color:#6aa1ff"/><stop id="stop1067" offset="1" style="stop-opacity:1;stop-color:#2879ff"/></radialGradient><radialGradient id="radialGradient1069-3" cx="9" cy="9" r="8.25" fx="9" fy="2.848" gradientTransform="translate(-3.273 -3.273) scale(1.36364)" gradientUnits="userSpaceOnUse" spreadMethod="pad"><stop id="stop1065-6" offset="0" style="stop-opacity:1;stop-color:#6aa1ff"/><stop id="stop1067-7" offset="1" style="stop-opacity:1;stop-color:#2879ff"/></radialGradient></defs><style id="style26698">.e{fill:#fff}.a{stroke:#fff}.b{stop-color:#fff}.c{stop-color:#1a237e}.d{stop-opacity:0}.f{stop-opacity:.12}</style><g id="g1053" transform="scale(.35277)"><g id="g1055"><g id="g1057"><g id="g1063"><path id="path1071" d="M7.195.836c.09 0 .176-.012.258-.035a23.86 23.86 0 0 1 3.231.008 10.26 10.26 0 0 1 2.836.636c1.519.625 2.558 1.711 3.121 3.254.316.93.507 1.887.566 2.867a21.227 21.227 0 0 1-.086 3.696 8.976 8.976 0 0 1-.672 2.488c-.637 1.383-1.672 2.336-3.101 2.859a11.693 11.693 0 0 1-3.575.618 15.998 15.998 0 0 1-4.089-.309c-2.481-.551-4.016-2.066-4.594-4.543a14.244 14.244 0 0 1-.336-3.383c-.027-1.211.101-2.41.387-3.59.609-2.312 2.078-3.746 4.406-4.3A10.27 10.27 0 0 1 7.195.836Z" style="fill:url(#radialGradient1069-3);fill-rule:evenodd;stroke:none"/></g></g></g><g id="g1073"><path id="path1075" d="m.766.766 16.468 16.468m0-16.468L.766 17.234M11.379.766v16.468M6.621.766v16.468m10.613-5.855H.766m16.468-4.758H.766" style="fill:none;stroke:#fff;stroke-width:.0428899;stroke-linecap:butt;stroke-linejoin:miter;stroke-miterlimit:4;stroke-dasharray:none;stroke-opacity:.2"/></g><g id="g1077"><path id="path1079" d="M13.078 9A4.08 4.08 0 0 1 9 13.078 4.08 4.08 0 0 1 4.922 9 4.08 4.08 0 0 1 9 4.922 4.08 4.08 0 0 1 13.078 9z" style="fill:none;stroke:#fff;stroke-width:.0522617;stroke-linecap:butt;stroke-linejoin:miter;stroke-miterlimit:4;stroke-dasharray:none;stroke-opacity:.2"/></g><g id="g1081"><path id="path1083" d="M.75 9h16.5M9 .75v16.5" style="fill:none;stroke:#fff;stroke-width:.0429687;stroke-linecap:butt;stroke-linejoin:miter;stroke-miterlimit:4;stroke-dasharray:none;stroke-opacity:.2"/></g><g id="g1085"><path id="path1087" d="M4.668 7.906v.379c0 .84.676 1.516 1.516 1.516h.375V8.664h1.136c.211 0 .379.168.379.379a.377.377 0 0 1-.379.379h-.379v.379h4.164a.945.945 0 0 0 .946-.949.945.945 0 0 0-.614-.887l.047-.059z" style="fill:none;stroke:#fff;stroke-width:.189233;stroke-linecap:butt;stroke-linejoin:miter;stroke-miterlimit:4;stroke-dasharray:none;stroke-opacity:1"/></g><g id="g1089"><path id="path1091" d="M5.883 3.555c0 1.961.785 3.136 2.355 4.312l.071.047c.031.027.062.051.093.074l2.391 1.629a1.104 1.104 0 0 0 1.543-.293 1.11 1.11 0 0 0-.18-1.457l-.008-.004a.71.71 0 0 0-.101-.082L9.926 6.332Z" style="fill:none;stroke:#fff;stroke-width:.189233;stroke-linecap:butt;stroke-linejoin:miter;stroke-miterlimit:4;stroke-dasharray:none;stroke-opacity:1"/></g><g id="g1093"><path id="path1095" d="M11.961 7.082a1.39 1.39 0 0 0-.981.395L6.277 12.18c-.257.254-.39.617-.394.98 0 .758.617 1.371 1.375 1.371.363 0 .722-.136.98-.394l4.703-4.703a1.38 1.38 0 0 0 .391-.981 1.37 1.37 0 0 0-1.371-1.371z" style="fill:none;stroke:#fff;stroke-width:.189233;stroke-linecap:butt;stroke-linejoin:miter;stroke-miterlimit:4;stroke-dasharray:none;stroke-opacity:1"/></g><g id="g1097"><path id="path1099" d="M7.059 4.754v.394l2.355 1.618v-.395Z" style="fill:none;stroke:#fff;stroke-width:.189233;stroke-linecap:butt;stroke-linejoin:miter;stroke-miterlimit:4;stroke-dasharray:none;stroke-opacity:1"/></g></g></svg>

<?xml version="1.0" encoding="UTF-8" standalone="no"?>
<svg
   width="24"
   height="24"
   viewBox="0 0 6.349875 6.349875"
   version="1.1"
   id="svg26544"
   sodipodi:docname="redhat-system_tools.svg"
   xml:space="preserve"
   inkscape:version="1.2.2 (b0a8486541, 2022-12-01)"
   inkscape:export-filename="google-chrome-developer-tool.pdf"
   inkscape:export-xdpi="96"
   inkscape:export-ydpi="96"
   xmlns:inkscape="http://www.inkscape.org/namespaces/inkscape"
   xmlns:sodipodi="http://sodipodi.sourceforge.net/DTD/sodipodi-0.dtd"
   xmlns="http://www.w3.org/2000/svg"
   xmlns:svg="http://www.w3.org/2000/svg"><defs
     id="defs26548"><radialGradient
       fx="0"
       fy="0"
       cx="0"
       cy="0"
       r="1"
       gradientUnits="userSpaceOnUse"
       gradientTransform="matrix(0,16.5,-16.5,0,8.999651,0.749985)"
       spreadMethod="pad"
       id="radialGradient868-3"><stop
         style="stop-opacity:1;stop-color:#fafafa"
         offset="0"
         id="stop864-6" /><stop
         style="stop-opacity:1;stop-color:#c0c0c0"
         offset="1"
         id="stop866-7" /></radialGradient><radialGradient
       fx="9.0003405"
       fy="2.847508"
       cx="9.0003405"
       cy="9.0000267"
       r="8.2498646"
       gradientUnits="userSpaceOnUse"
       gradientTransform="matrix(1.363642,0,0,1.363642,-3.273245,-3.272818)"
       spreadMethod="pad"
       id="radialGradient27965"><stop
         style="stop-opacity:1;stop-color:#6aa1ff"
         offset="0"
         id="stop27961" /><stop
         style="stop-opacity:1;stop-color:#2879ff"
         offset="1"
         id="stop27963" /></radialGradient><radialGradient
       fx="9.0003405"
       fy="2.847508"
       cx="9.0003405"
       cy="9.0000267"
       r="8.2498646"
       gradientUnits="userSpaceOnUse"
       gradientTransform="matrix(1.363642,0,0,1.363642,-3.273245,-3.272818)"
       spreadMethod="pad"
       id="radialGradient27965-2"><stop
         style="stop-opacity:1;stop-color:#6aa1ff"
         offset="0"
         id="stop27961-6" /><stop
         style="stop-opacity:1;stop-color:#2879ff"
         offset="1"
         id="stop27963-6" /></radialGradient><radialGradient
       fx="9.0003405"
       fy="2.847508"
       cx="9.0003405"
       cy="9.0000267"
       r="8.2498646"
       gradientUnits="userSpaceOnUse"
       gradientTransform="matrix(1.363642,0,0,1.363642,-3.273347,-3.272818)"
       spreadMethod="pad"
       id="radialGradient1069"><stop
         style="stop-opacity:1;stop-color:#6aa1ff"
         offset="0"
         id="stop1065" /><stop
         style="stop-opacity:1;stop-color:#2879ff"
         offset="1"
         id="stop1067" /></radialGradient><radialGradient
       fx="9.0003405"
       fy="2.847508"
       cx="9.0003405"
       cy="9.0000267"
       r="8.2498646"
       gradientUnits="userSpaceOnUse"
       gradientTransform="matrix(1.363642,0,0,1.363642,-3.273347,-3.272818)"
       spreadMethod="pad"
       id="radialGradient1069-3"><stop
         style="stop-opacity:1;stop-color:#6aa1ff"
         offset="0"
         id="stop1065-6" /><stop
         style="stop-opacity:1;stop-color:#2879ff"
         offset="1"
         id="stop1067-7" /></radialGradient></defs><sodipodi:namedview
     id="namedview26546"
     pagecolor="#ffffff"
     bordercolor="#000000"
     borderopacity="0.25"
     inkscape:showpageshadow="2"
     inkscape:pageopacity="0.0"
     inkscape:pagecheckerboard="0"
     inkscape:deskcolor="#d1d1d1"
     showgrid="false"
     inkscape:zoom="9.3691648"
     inkscape:cx="48.350094"
     inkscape:cy="14.675801"
     inkscape:window-width="2560"
     inkscape:window-height="1000"
     inkscape:window-x="1680"
     inkscape:window-y="0"
     inkscape:window-maximized="1"
     inkscape:current-layer="svg26544" /><style
     id="style26698">.e{fill:#fff}.a{stroke:#fff}.b{stop-color:#fff}.c{stop-color:#1a237e}.d{stop-opacity:0}.f{stop-opacity:.12}</style><g
     id="g1053"
     transform="matrix(0.35277082,0,0,0.35277082,-3.5910732e-5,1.2e-7)"><g
       id="g1055"><g
         id="g1057"><g
           id="g1063"><path
             d="m 7.195,0.836 c 0.09,0 0.176,-0.012 0.258,-0.035 1.078,-0.071 2.156,-0.067 3.231,0.008 0.976,0.078 1.921,0.289 2.836,0.636 1.519,0.625 2.558,1.711 3.121,3.254 0.316,0.93 0.507,1.887 0.566,2.867 0.078,1.235 0.051,2.465 -0.086,3.696 -0.105,0.863 -0.328,1.691 -0.672,2.488 -0.637,1.383 -1.672,2.336 -3.101,2.859 C 12.191,17 11,17.207 9.773,17.227 8.398,17.301 7.035,17.195 5.684,16.918 3.203,16.367 1.668,14.852 1.09,12.375 0.844,11.262 0.73,10.133 0.754,8.992 0.727,7.781 0.855,6.582 1.141,5.402 1.75,3.09 3.219,1.656 5.547,1.102 6.09,0.969 6.641,0.879 7.195,0.836 Z"
             style="fill:url(#radialGradient1069-3);fill-rule:evenodd;stroke:none"
             id="path1071" /></g></g></g><g
       id="g1073"><path
         d="m 0.766,0.766 16.468,16.468 m 0,-16.468 L 0.766,17.234 M 11.379,0.766 V 17.234 M 6.621,0.766 V 17.234 M 17.234,11.379 H 0.766 M 17.234,6.621 H 0.766"
         style="fill:none;stroke:#ffffff;stroke-width:0.0428899;stroke-linecap:butt;stroke-linejoin:miter;stroke-miterlimit:4;stroke-dasharray:none;stroke-opacity:0.2"
         id="path1075" /></g><g
       id="g1077"><path
         d="M 13.078,9 C 13.078,11.25 11.25,13.078 9,13.078 6.75,13.078 4.922,11.25 4.922,9 4.922,6.75 6.75,4.922 9,4.922 c 2.25,0 4.078,1.828 4.078,4.078 z"
         style="fill:none;stroke:#ffffff;stroke-width:0.0522617;stroke-linecap:butt;stroke-linejoin:miter;stroke-miterlimit:4;stroke-dasharray:none;stroke-opacity:0.2"
         id="path1079" /></g><g
       id="g1081"><path
         d="m 0.75,9 h 16.5 M 9,0.75 v 16.5"
         style="fill:none;stroke:#ffffff;stroke-width:0.0429687;stroke-linecap:butt;stroke-linejoin:miter;stroke-miterlimit:4;stroke-dasharray:none;stroke-opacity:0.2"
         id="path1083" /></g><g
       id="g1085"><path
         d="m 4.668,7.906 v 0.379 c 0,0.84 0.676,1.516 1.516,1.516 H 6.559 V 8.664 h 1.136 c 0.211,0 0.379,0.168 0.379,0.379 0,0.211 -0.168,0.379 -0.379,0.379 H 7.316 v 0.379 h 4.164 c 0.524,0 0.946,-0.422 0.946,-0.949 0,-0.395 -0.242,-0.747 -0.614,-0.887 l 0.047,-0.059 z"
         style="fill:none;stroke:#ffffff;stroke-width:0.189233;stroke-linecap:butt;stroke-linejoin:miter;stroke-miterlimit:4;stroke-dasharray:none;stroke-opacity:1"
         id="path1087" /></g><g
       id="g1089"><path
         d="m 5.883,3.555 c 0,1.961 0.785,3.136 2.355,4.312 L 8.309,7.914 C 8.34,7.941 8.371,7.965 8.402,7.988 l 2.391,1.629 c 0.504,0.348 1.199,0.219 1.543,-0.293 0.316,-0.461 0.238,-1.086 -0.18,-1.457 L 12.148,7.863 C 12.117,7.832 12.082,7.805 12.047,7.781 L 9.926,6.332 Z"
         style="fill:none;stroke:#ffffff;stroke-width:0.189233;stroke-linecap:butt;stroke-linejoin:miter;stroke-miterlimit:4;stroke-dasharray:none;stroke-opacity:1"
         id="path1091" /></g><g
       id="g1093"><path
         d="m 11.961,7.082 c -0.363,0 -0.723,0.137 -0.981,0.395 L 6.277,12.18 c -0.257,0.254 -0.39,0.617 -0.394,0.98 0,0.758 0.617,1.371 1.375,1.371 0.363,0 0.722,-0.136 0.98,-0.394 l 4.703,-4.703 c 0.258,-0.254 0.391,-0.618 0.391,-0.981 0,-0.758 -0.613,-1.371 -1.371,-1.371 z"
         style="fill:none;stroke:#ffffff;stroke-width:0.189233;stroke-linecap:butt;stroke-linejoin:miter;stroke-miterlimit:4;stroke-dasharray:none;stroke-opacity:1"
         id="path1095" /></g><g
       id="g1097"><path
         d="M 7.059,4.754 V 5.148 L 9.414,6.766 V 6.371 Z"
         style="fill:none;stroke:#ffffff;stroke-width:0.189233;stroke-linecap:butt;stroke-linejoin:miter;stroke-miterlimit:4;stroke-dasharray:none;stroke-opacity:1"
         id="path1099" /></g></g></svg>
